images_elementary_svg/cmd/lc_formfiltered.svg

<svg height="24" width="24" xmlns="http://www.w3.org/2000/svg" xmlns:xlink="http://www.w3.org/1999/xlink"><linearGradient id="a" gradientTransform="matrix(-.222635 -.37381299 .385616 -.215821 26.912532 54.139086)" gradientUnits="userSpaceOnUse" spreadMethod="reflect" x1="82.923607" x2="107.10129" y1="27.590219" y2="27.913111"><stop offset="0" stop-color="#c2c3c4"/><stop offset=".09508789" stop-color="#c4c5c8"/><stop offset="1" stop-color="#fcfcfc"/></linearGradient><linearGradient id="b" gradientUnits="userSpaceOnUse" x1="16.023764" x2="16.023764" y1="1.908505" y2="15.058398"><stop offset="0" stop-color="#fff"/><stop offset=".40498418" stop-color="#fff" stop-opacity=".235294"/><stop offset=".74407381" stop-color="#fff" stop-opacity=".156863"/><stop offset="1" stop-color="#fff" stop-opacity=".392157"/></linearGradient><linearGradient id="c" gradientUnits="userSpaceOnUse" x1=".110175" x2="22.257858" y1="11.067201" y2="11.067201"><stop offset="0" stop-opacity=".339506"/><stop offset="1" stop-opacity=".246914"/></linearGradient><radialGradient id="d" cx="5.780028" cy="8.449767" gradientTransform="matrix(0 .89892574 -.95095622 -.00000002 649.0354 -150.01468)" gradientUnits="userSpaceOnUse" r="19.99999"><stop offset="0" stop-color="#90dbec"/><stop offset=".26238" stop-color="#55c1ec"/><stop offset=".704952" stop-color="#3689e6"/><stop offset="1" stop-color="#2b63a0"/></radialGradient><linearGradient id="e" gradientTransform="matrix(.38465107 0 0 .38465106 631.76837 -145.23163)" gradientUnits="userSpaceOnUse" x1="24" x2="24" y1="44" y2="3.899002"><stop offset="0" stop-color="#185f9a"/><stop offset="1" stop-color="#599ec9"/></linearGradient><linearGradient id="f" gradientUnits="userSpaceOnUse" x1="640.81409" x2="640.81409" y1="-142.71773" y2="-129.33011"><stop offset="0" stop-color="#fff"/><stop offset=".507761" stop-color="#fff" stop-opacity=".235294"/><stop offset=".83456558" stop-color="#fff" stop-opacity=".156863"/><stop offset="1" stop-color="#fff" stop-opacity=".392157"/></linearGradient><g transform="matrix(-.5 .8660254 -.8660254 -.5 25.42908 5.060827)"><path d="m10.112109 20.640247 2.344358-1.353516 2.843866-9.7383418 6.457529-3.7410137c-.197165-1.8980106-1.151681-3.2173379-2.490234-4.3132118l-6.457529 3.7410137-9.8555848-2.4063114-2.34435782 1.3535156 4.76281672 8.2220964z" fill="url(#a)" fill-rule="evenodd" stroke="url(#c)" stroke-linejoin="round"/><path d="m6.237307 11.905455 4.269008 7.386326 1.089783-.73744 3.000405-9.7836141 6.125448-3.4568206c-.116979-1.2203799-.887772-2.0438511-1.544922-2.6758834l-6.04537 3.5955197-9.9730607-2.2933801-1.1835334.5750601z" fill="none" stroke="url(#b)"/><g transform="matrix(-.34399806 -.59582211 .59519243 -.34363451 316.18572 335.83052)"><path d="m641-143.5c-4.13824 0-7.5 3.36176-7.5 7.5s3.36176 7.5 7.5 7.5 7.5-3.36176 7.5-7.5-3.36176-7.5-7.5-7.5z" fill="url(#d)" stroke="url(#e)" stroke-linecap="round" stroke-linejoin="round" stroke-width="1.454265"/><path d="m647.5-136.00023c0 3.58997-2.91036 6.50023-6.49992 6.50023-3.58988 0-6.50008-2.9103-6.50008-6.50023 0-3.5898 2.9102-6.49977 6.50008-6.49977 3.58956 0 6.49992 2.90997 6.49992 6.49977z" style="opacity:.5;fill:none;stroke-linecap:round;stroke-linejoin:round;stroke-width:1.454265;stroke:url(#f)"/><path d="m13.21875 3.40625a2.0402886 2.0402886 0 0 0 -.09375.09375l-4.1875 4.5625-1.5-1.5a2.0402886 2.0402886 0 0 0 -2.875 0l-2 2a2.0402886 2.0402886 0 0 0 -.53125.875 2.0402886 2.0402886 0 0 0 0 .0625c.041073.581606.1379501 1.153759.3125 1.6875a2.0402886 2.0402886 0 0 0 .375.40625l5 4a2.0402886 2.0402886 0 0 0 .71875.375c.020551.0016.041899-.0015.0625 0a2.0402886 2.0402886 0 0 0 .125.03125c.1241935.0066.2491729 0 .375 0 .178711 0 .3559046-.01809.53125-.03125a2.0402886 2.0402886 0 0 0 .96875-.59375l5.46875-5.875c.01167-.1652555.03125-.3317746.03125-.5 0-2.2785514-1.095693-4.3155215-2.78125-5.59375z" fill="#185f9a" opacity=".1" transform="translate(632 -145)"/><path d="m14.03125 4.15625a.94895148.94895148 0 0 0 -.09375.0625l-4.96875 5.4375-2.3125-2.3125a.94895148.94895148 0 0 0 -1.3125 0l-2 2a.94895148.94895148 0 0 0 .0625 1.40625l5 4a.94895148.94895148 0 0 0 1.28125-.09375l6.21875-6.6875c-.218501-1.473701-.888095-2.7885095-1.875-3.8125z" fill="#185f9a" opacity=".25" transform="translate(632 -145)"/><path d="m646.625-140.125-5.625 6.125-3-3-2 2 5 4 6.65625-7.15625z" fill="#fff"/></g></g></svg>

<?xml version="1.0" encoding="UTF-8" standalone="no"?>
<svg
   xmlns:dc="http://purl.org/dc/elements/1.1/"
   xmlns:cc="http://creativecommons.org/ns#"
   xmlns:rdf="http://www.w3.org/1999/02/22-rdf-syntax-ns#"
   xmlns:svg="http://www.w3.org/2000/svg"
   xmlns="http://www.w3.org/2000/svg"
   xmlns:xlink="http://www.w3.org/1999/xlink"
   xmlns:sodipodi="http://sodipodi.sourceforge.net/DTD/sodipodi-0.dtd"
   xmlns:inkscape="http://www.inkscape.org/namespaces/inkscape"
   version="1.1"
   width="24"
   height="24"
   id="svg4007"
   sodipodi:docname="lc_formfiltered.svg"
   inkscape:version="0.92.3 (unknown)"
   inkscape:export-filename="/home/rizmut/Dokumen/Rizmut/Github/libreoffice-style-elementary/images_elementary/cmd/lc_datafilterautofilter.png"
   inkscape:export-xdpi="96"
   inkscape:export-ydpi="96">
  <sodipodi:namedview
     pagecolor="#ffffff"
     bordercolor="#666666"
     borderopacity="1"
     objecttolerance="10"
     gridtolerance="10"
     guidetolerance="10"
     inkscape:pageopacity="0"
     inkscape:pageshadow="2"
     inkscape:window-width="1366"
     inkscape:window-height="706"
     id="namedview32"
     showgrid="true"
     inkscape:snap-global="true"
     inkscape:zoom="11.313709"
     inkscape:cx="5.4800341"
     inkscape:cy="17.371263"
     inkscape:window-x="0"
     inkscape:window-y="0"
     inkscape:window-maximized="1"
     inkscape:current-layer="g843">
    <inkscape:grid
       type="xygrid"
       id="grid845" />
  </sodipodi:namedview>
  <defs
     id="defs4009">
    <linearGradient
       id="linearGradient964">
      <stop
         offset="0"
         style="stop-color:#ffffff;stop-opacity:1"
         id="stop956" />
      <stop
         offset="0.40498418"
         style="stop-color:#ffffff;stop-opacity:0.23529412"
         id="stop958" />
      <stop
         offset="0.74407381"
         style="stop-color:#ffffff;stop-opacity:0.15686275"
         id="stop960" />
      <stop
         offset="1"
         style="stop-color:#ffffff;stop-opacity:0.39215687"
         id="stop962" />
    </linearGradient>
    <linearGradient
       y2="27.913111"
       x2="107.10129"
       y1="27.590219"
       x1="82.923607"
       spreadMethod="reflect"
       gradientTransform="matrix(-0.222635,-0.37381299,0.385616,-0.215821,26.912532,54.139086)"
       gradientUnits="userSpaceOnUse"
       id="linearGradient15986"
       xlink:href="#linearGradient14411" />
    <linearGradient
       id="linearGradient14411">
      <stop
         style="stop-color:#c2c3c4;stop-opacity:1"
         offset="0"
         id="stop14413" />
      <stop
         id="stop14415"
         offset="0.09508789"
         style="stop-color:#c4c5c8;stop-opacity:1" />
      <stop
         style="stop-color:#fcfcfc;stop-opacity:1"
         offset="1"
         id="stop14417" />
    </linearGradient>
    <radialGradient
       gradientTransform="matrix(0.50706084,0,0,0.50357398,-7.1628404,3.0170551)"
       r="4.3006992"
       fy="21.21833"
       fx="24.660349"
       cy="21.21833"
       cx="24.660349"
       gradientUnits="userSpaceOnUse"
       id="radialGradient15988"
       xlink:href="#linearGradient8059" />
    <linearGradient
       id="linearGradient8059">
      <stop
         style="stop-color:#ffffff;stop-opacity:1.0000000;"
         offset="0.0000000"
         id="stop8061" />
      <stop
         style="stop-color:#9d9d9d;stop-opacity:1"
         offset="1.0000000"
         id="stop8063" />
    </linearGradient>
    <linearGradient
       y2="240.80917"
       x2="195.83525"
       y1="235.83804"
       x1="194.15193"
       gradientTransform="rotate(-3.5148819,-3623.5832,3224.8338)"
       gradientUnits="userSpaceOnUse"
       id="linearGradient15993"
       xlink:href="#linearGradient17889" />
    <linearGradient
       id="linearGradient17889">
      <stop
         id="stop17891"
         offset="0"
         style="stop-color:#cfd1d3;stop-opacity:1;" />
      <stop
         id="stop17893"
         offset="1"
         style="stop-color:#cfd1d3;stop-opacity:0;" />
    </linearGradient>
    <linearGradient
       gradientUnits="userSpaceOnUse"
       y2="15.044191"
       x2="16.015562"
       y1="1.8942976"
       x1="16.015562"
       id="linearGradient954"
       xlink:href="#linearGradient964"
       gradientTransform="translate(0.00820202,0.01420663)" />
    <linearGradient
       id="c"
       gradientTransform="matrix(0.26725589,0,0,1.157552,9.315594,-10.704165)"
       gradientUnits="userSpaceOnUse"
       x1="-32.957481"
       x2="-25.474016"
       y1="27.388975"
       y2="27.388975">
      <stop
         offset="0"
         stop-color="#2e3436"
         id="stop8" />
      <stop
         offset=".64444447"
         stop-color="#888a85"
         id="stop10" />
      <stop
         offset="1"
         stop-color="#555753"
         id="stop12" />
    </linearGradient>
    <linearGradient
       id="d"
       gradientTransform="matrix(0.77602087,0.23906428,-0.31605097,0.56747902,-20.167798,4.551095)"
       gradientUnits="userSpaceOnUse"
       x1="27.52779"
       x2="30.419695"
       y1="4.1670198"
       y2="2.948735">
      <stop
         offset="0"
         stop-color="#eeeeec"
         id="stop15" />
      <stop
         offset=".78888887"
         stop-color="#fff"
         id="stop17" />
      <stop
         offset="1"
         stop-color="#eeeeec"
         id="stop19" />
    </linearGradient>
    <linearGradient
       gradientTransform="matrix(0.28571361,0,0,0.30419701,1.1428727,0.2326048)"
       gradientUnits="userSpaceOnUse"
       xlink:href="#linearGradient3600"
       id="linearGradient3940"
       y2="47.013336"
       x2="25.132275"
       y1="0.98520643"
       x1="25.132275" />
    <linearGradient
       id="linearGradient3600">
      <stop
         offset="0"
         style="stop-color:#f4f4f4;stop-opacity:1"
         id="stop3602" />
      <stop
         offset="1"
         style="stop-color:#dbdbdb;stop-opacity:1"
         id="stop3604" />
    </linearGradient>
    <linearGradient
       gradientTransform="matrix(0.24324324,0,0,0.35135133,2.1621636,-0.43242804)"
       gradientUnits="userSpaceOnUse"
       xlink:href="#linearGradient3977"
       id="linearGradient3095"
       y2="41.076912"
       x2="23.99999"
       y1="6.9230647"
       x1="23.99999" />
    <linearGradient
       id="linearGradient3977">
      <stop
         offset="0"
         style="stop-color:#ffffff;stop-opacity:1"
         id="stop3979" />
      <stop
         offset="0"
         style="stop-color:#ffffff;stop-opacity:0.23529412"
         id="stop3981" />
      <stop
         offset="1"
         style="stop-color:#ffffff;stop-opacity:0.15686275"
         id="stop3983" />
      <stop
         offset="1"
         style="stop-color:#ffffff;stop-opacity:0.39215687"
         id="stop3985" />
    </linearGradient>
    <linearGradient
       gradientTransform="matrix(0.25378586,0,0,0.30501865,19.128979,-0.68547704)"
       gradientUnits="userSpaceOnUse"
       xlink:href="#linearGradient3104-9"
       id="linearGradient3092"
       y2="2.9062471"
       x2="-51.786404"
       y1="50.786446"
       x1="-51.786404" />
    <linearGradient
       id="linearGradient3104-9">
      <stop
         offset="0"
         style="stop-color:#000000;stop-opacity:0.33950618"
         id="stop3106-5" />
      <stop
         offset="1"
         style="stop-color:#000000;stop-opacity:0.24691358"
         id="stop3108-5" />
    </linearGradient>
    <linearGradient
       inkscape:collect="always"
       xlink:href="#linearGradient3104-9"
       id="linearGradient1135"
       x1="0.11017474"
       y1="11.067201"
       x2="22.257858"
       y2="11.067201"
       gradientUnits="userSpaceOnUse" />
    <radialGradient
       id="d-1"
       cx="5.7800279"
       cy="8.4497671"
       gradientTransform="matrix(0,0.89892574,-0.95095622,-2e-8,649.0354,-150.01468)"
       gradientUnits="userSpaceOnUse"
       r="19.99999">
      <stop
         offset="0"
         stop-color="#90dbec"
         id="stop13" />
      <stop
         offset=".26238"
         stop-color="#55c1ec"
         id="stop15-0" />
      <stop
         offset=".704952"
         stop-color="#3689e6"
         id="stop17-7" />
      <stop
         offset="1"
         stop-color="#2b63a0"
         id="stop19-5" />
    </radialGradient>
    <linearGradient
       id="e"
       gradientTransform="matrix(0.38465107,0,0,0.38465106,631.76837,-145.23163)"
       gradientUnits="userSpaceOnUse"
       x1="24"
       x2="24"
       y1="44"
       y2="3.8990021">
      <stop
         offset="0"
         stop-color="#185f9a"
         id="stop22" />
      <stop
         offset="1"
         stop-color="#599ec9"
         id="stop24" />
    </linearGradient>
    <linearGradient
       id="f"
       gradientUnits="userSpaceOnUse"
       x1="640.81409"
       x2="640.81409"
       y1="-142.71773"
       y2="-129.33011">
      <stop
         offset="0"
         stop-color="#fff"
         id="stop27" />
      <stop
         offset=".507761"
         stop-color="#fff"
         stop-opacity=".235294"
         id="stop29" />
      <stop
         offset=".83456558"
         stop-color="#fff"
         stop-opacity=".156863"
         id="stop31" />
      <stop
         offset="1"
         stop-color="#fff"
         stop-opacity=".392157"
         id="stop33" />
    </linearGradient>
  </defs>
  <metadata
     id="metadata4012">
    <rdf:RDF>
      <cc:Work
         rdf:about="">
        <dc:format>image/svg+xml</dc:format>
        <dc:type
           rdf:resource="http://purl.org/dc/dcmitype/StillImage" />
        <dc:title></dc:title>
      </cc:Work>
    </rdf:RDF>
  </metadata>
  <g
     id="g843"
     transform="rotate(120,11.253605,9.8711564)">
    <g
       id="g1004">
      <path
         sodipodi:nodetypes="cccccccccc"
         inkscape:connector-curvature="0"
         id="path16943"
         d="m 10.112109,20.640247 2.344358,-1.353516 2.843866,-9.7383418 6.457529,-3.7410137 C 21.560697,3.9093649 20.606181,2.5900376 19.267628,1.4941637 L 12.810099,5.2351774 2.9545142,2.828866 0.61015638,4.1823816 5.3729731,12.404478 Z"
         style="opacity:1;fill:url(#linearGradient15986);fill-opacity:1;fill-rule:evenodd;stroke:url(#linearGradient1135);stroke-width:1;stroke-linecap:butt;stroke-linejoin:round;stroke-miterlimit:4;stroke-dasharray:none;stroke-opacity:1" />
      <path
         sodipodi:nodetypes="cccccccccc"
         inkscape:connector-curvature="0"
         id="path16947"
         d="m 6.237307,11.905455 4.269008,7.386326 1.089783,-0.73744 3.000405,-9.7836141 6.125448,-3.4568206 C 20.604972,4.0935264 19.834179,3.2700552 19.177029,2.6380229 L 13.131659,6.2335426 3.1585983,3.9401625 1.9750649,4.5152226 Z"
         style="opacity:1;fill:none;stroke:url(#linearGradient954);stroke-width:1;stroke-linecap:butt;stroke-linejoin:miter;stroke-miterlimit:4;stroke-dasharray:none;stroke-opacity:1" />
      <g
         transform="translate(-4.2509766,-7.3629075)"
         id="g959" />
    </g>
    <g
       transform="matrix(-0.34399806,-0.59582211,0.59519243,-0.34363451,316.18572,335.83052)"
       id="g53">
      <path
         style="fill:url(#d-1);stroke:url(#e);stroke-linecap:round;stroke-linejoin:round;stroke-width:1.45426524;stroke-miterlimit:4;stroke-dasharray:none"
         inkscape:connector-curvature="0"
         d="m 641,-143.5 c -4.13824,0 -7.5,3.36176 -7.5,7.5 0,4.13824 3.36176,7.5 7.5,7.5 4.13824,0 7.5,-3.36176 7.5,-7.5 0,-4.13824 -3.36176,-7.5 -7.5,-7.5 z"
         id="path43" />
      <path
         style="opacity:0.5;fill:none;stroke:url(#f);stroke-linecap:round;stroke-linejoin:round;stroke-width:1.45426524;stroke-miterlimit:4;stroke-dasharray:none"
         inkscape:connector-curvature="0"
         d="m 647.5,-136.00023 c 0,3.58997 -2.91036,6.50023 -6.49992,6.50023 -3.58988,0 -6.50008,-2.9103 -6.50008,-6.50023 0,-3.5898 2.9102,-6.49977 6.50008,-6.49977 3.58956,0 6.49992,2.90997 6.49992,6.49977 z"
         id="path45" />
      <path
         style="opacity:0.1;fill:#185f9a"
         inkscape:connector-curvature="0"
         d="M 13.21875,3.40625 A 2.0402886,2.0402886 0 0 0 13.125,3.5 l -4.1875,4.5625 -1.5,-1.5 a 2.0402886,2.0402886 0 0 0 -2.875,0 l -2,2 a 2.0402886,2.0402886 0 0 0 -0.53125,0.875 2.0402886,2.0402886 0 0 0 0,0.0625 c 0.041073,0.581606 0.1379501,1.153759 0.3125,1.6875 a 2.0402886,2.0402886 0 0 0 0.375,0.40625 l 5,4 a 2.0402886,2.0402886 0 0 0 0.71875,0.375 c 0.020551,0.0016 0.041899,-0.0015 0.0625,0 A 2.0402886,2.0402886 0 0 0 8.625,16 C 8.7491935,16.0066 8.8741729,16 9,16 9.178711,16 9.3559046,15.98191 9.53125,15.96875 A 2.0402886,2.0402886 0 0 0 10.5,15.375 L 15.96875,9.5 C 15.98042,9.3347445 16,9.1682254 16,9 16,6.7214486 14.904307,4.6844785 13.21875,3.40625 Z"
         transform="translate(632,-145)"
         id="path47" />
      <path
         style="opacity:0.25;fill:#185f9a"
         inkscape:connector-curvature="0"
         d="m 14.03125,4.15625 a 0.94895148,0.94895148 0 0 0 -0.09375,0.0625 l -4.96875,5.4375 -2.3125,-2.3125 a 0.94895148,0.94895148 0 0 0 -1.3125,0 l -2,2 A 0.94895148,0.94895148 0 0 0 3.40625,10.75 l 5,4 A 0.94895148,0.94895148 0 0 0 9.6875,14.65625 l 6.21875,-6.6875 c -0.218501,-1.473701 -0.888095,-2.7885095 -1.875,-3.8125 z"
         transform="translate(632,-145)"
         id="path49" />
      <path
         style="fill:#ffffff"
         inkscape:connector-curvature="0"
         d="M 646.625,-140.125 641,-134 l -3,-3 -2,2 5,4 6.65625,-7.15625 z"
         id="path51" />
    </g>
  </g>
</svg>
